X: 167
T: Pizmon Ha'agudah
O: Israel
C: Uri Shevach 1970
M: 4/4
L: 1/8
K: Fm
Q:1/4=132
%%MIDI program 73 Flute
%%MIDI bassprog 24 Acoustic Guitar
%%MIDI chordprog 24 Acoustic Guitar
"Fm"=A3B c2c2|"Bbm"dcde "Fm"c4|"Fm"=A3B c2c2|"Bbm"dcde "Fm"c4|\
=A3B c2c2|"Bbm"dcde "Fm"c4|:
"Bbm"Bz2B B2B2|B=ABc BAF2|"Eb"E3F "Bbm"^F2B2|[1 "Fm"=A2F2 c4:|[2"Fm"=A2^F2 =F4|



